assets/icons/traton/double_kebab.svg

<svg xmlns="http://www.w3.org/2000/svg" fill="none" viewBox="0 0 32 32"><path fill="#001d21" d="M14 26h-4v-4h4zm8 0h-4v-4h4zm-8-8h-4v-4h4zm8 0h-4v-4h4zm-8-8h-4V6h4zm8 0h-4V6h4z"/></svg>

<svg xmlns="http://www.w3.org/2000/svg" width="32" height="32" viewBox="0 0 32 32" fill="none">
<path d="M14 26H10V22H14V26ZM22 26H18V22H22V26ZM14 18H10V14H14V18ZM22 18H18V14H22V18ZM14 10H10V6H14V10ZM22 10H18V6H22V10Z" fill="#001D21" />
</svg>
